X: 68
M:C
L:1/8
K:G
d/d/d fd Tg2 dB | d/d/d fd Te2 cA |
d/d/d fd gefd | e/f/g f/g/a Te2 cA ::
d/d/d fd gefB | d/d/d fB eAcA |
d/d/d fd gefd | e/f/g/e/ f/g/a/f/ Te2 cA ::
g2 Bg BgdB | g2 Bg BgcA |
g2 Bg a/g/f/e/ f2d2 | e/f/g/e/ f/g/a/f/ Te2 eA :|


